X:02
T: Catnip
C: Frank Wakefield
S: MandoZine TablEdit Archives
Z: TablEdited by Mike Stangeland for MandoZine
L: 1/8
Q: 506
M: 4/4
K: A
 z6 [A2E2] | "A"[AA][AA] [AA][AA] [A2A2] [AA]A | =c=c =ce =cB A^c | "G"ee ee e2 ee |
 =g=g =gb =gf ec | "A"EG GE EA AB | =c=c =cd =cB AB | =ce ef =ga =gf | "E"ed =cB "A"A2 =G,=G, |
 A,C CE EF FA | =c=c =cd =cB AE | "G"FA AB =cd ef | =gf =gb =gf eA, | "A"A,C CE EF FA |
 =c=c =cd =cB AB | =ce ef =ga =gf | "E"ed =cB "A"A4 | "A"AA AA A2 AA | =c=c =cd =cB AB |
 "G"ee ee e2 ee | =g=g =g=g =gf e2 | "A"ee ee e2 ee | aa a=c' aa ae | =gd d=g ed =c=c |
 "E"A=G =G=c "A"A4 | "A"AA AA A2 AA | =c=c =cd =cB AE | "G"EA Ac ce ef | =g=g =ga =gf ed |
 "A"ee e[ae] [a2e2] [ae][ae] | aa a=c' aa ae | =gd d=g ed d=c | "E"A=G =G=c "A"A4 |
